app/dist/common/images/westamerica-bancorp.svg

<svg height="18" width="18" xmlns="http://www.w3.org/2000/svg"><path d="m0 0h18v18h-18z" fill="#00548e"/><g fill="#fff"><path d="m6.324 5 1.02 3h3.304l-2.672 2.039 1.02 2.961-2.672-1.772-2.672 1.772 1.02-2.961-2.672-2.039h3.303z"/><path d="m8.772 5h-1.632l1.05 2.5h1.63zm2.565 0h-1.632l1.049 2.5h1.632l-1.05-2.5zm2.102 3h-1.516l-3.033 2.084 1.048 2.916h1.749l-1.166-2.916z"/><path d="m16.015 8h-1.515l-2.93 2.084 1.05 2.916h1.748l-1.166-2.916z"/></g></svg>

<!-- by TradingView --><svg width="18" height="18" xmlns="http://www.w3.org/2000/svg"><path fill="#00548E" d="M0 0h18v18H0z"/><path d="M6.324 5l1.02 3h3.304l-2.672 2.039L8.996 13l-2.672-1.772L3.652 13l1.02-2.961L2 8h3.303l1.021-3z" fill="#fff"/><path d="M8.772 5H7.14l1.05 2.5H9.82L8.772 5zM11.337 5H9.705l1.049 2.5h1.632L11.336 5zM13.439 8h-1.516L8.89 10.084 9.938 13h1.749l-1.166-2.916L13.439 8z" fill="#fff"/><path d="M16.015 8H14.5l-2.93 2.084L12.62 13h1.748l-1.166-2.916L16.015 8z" fill="#fff"/></svg>
